; HEADER_BLOCK_START
; generated by OrcaSlicer 1.5.0 on 2023-07-09 at 11:51:00
; estimated printing time (normal mode) = 3m 40s
; total layer number: 25
; HEADER_BLOCK_END

; hack-fix: write fake slicer info here so that preprocess_cancellation can process.
; generated by SuperSlicer 1.5.0 on 2023-07-09 at 11:51:00

; THUMBNAIL_BLOCK_START
; THUMBNAIL_BLOCK_END

; external perimeters extrusion width = 0.40mm
; perimeters extrusion width = 0.45mm
; infill extrusion width = 0.45mm
; solid infill extrusion width = 0.40mm
; top infill extrusion width = 0.40mm
; first layer extrusion width = 0.50mm

; external perimeters extrusion width = 0.40mm
; perimeters extrusion width = 0.45mm
; infill extrusion width = 0.45mm
; solid infill extrusion width = 0.40mm
; top infill extrusion width = 0.40mm
; first layer extrusion width = 0.50mm

; external perimeters extrusion width = 0.40mm
; perimeters extrusion width = 0.45mm
; infill extrusion width = 0.45mm
; solid infill extrusion width = 0.40mm
; top infill extrusion width = 0.40mm
; first layer extrusion width = 0.50mm

; external perimeters extrusion width = 0.40mm
; perimeters extrusion width = 0.45mm
; infill extrusion width = 0.45mm
; solid infill extrusion width = 0.40mm
; top infill extrusion width = 0.40mm
; first layer extrusion width = 0.50mm

; EXECUTABLE_BLOCK_START
M73 P0 R3
;TYPE:Custom
M190 S105
M109 S260
PRINT_START EXTRUDER=260 BED=105
M190 S105 ; set bed temperature and wait for it to be reached
M104 S260 ; set nozzle temperature
G90
G21
M83 ; use relative distances for extrusion
; Filament gcode
M106 S0
;LAYER_CHANGE
;Z:0.2
;HEIGHT:0.2
;BEFORE_LAYER_CHANGE
;0.2
G92 E0

G1 E-.8 F1800
G1 Z.4 F21000
;AFTER_LAYER_CHANGE
;0.2
M204 S500
; printing object cylinder_2.stl id:3 copy 0
G1 X123.139 Y134.801
G1 Z.2
G1 E.8 F1800
;TYPE:Inner wall
;WIDTH:0.499999
G1 F3000
G1 X123.153 Y134.613 E.00663
G1 X123.283 Y134.27 E.01289
G1 X123.524 Y133.938 E.01443
G1 X123.847 Y133.713 E.01386
G1 X124.221 Y133.581 E.01397
G1 X124.618 Y133.577 E.01396
G1 X125 Y133.678 E.01389
G1 X125.328 Y133.897 E.01389
G1 X125.587 Y134.197 E.01395
G1 X125.734 Y134.561 E.01382
G1 X125.781 Y134.957 E.01403
G1 X125.685 Y135.353 E.01433
G1 X125.471 Y135.745 E.01574
G1 X125.175 Y135.999 E.01373
G1 X124.813 Y136.171 E.01411
G1 X124.421 Y136.213 E.01388
G1 X124.029 Y136.151 E.01396
G1 X123.681 Y135.966 E.01388
G1 X123.392 Y135.693 E.01397
G1 X123.211 Y135.348 E.01373
G1 X123.126 Y134.971 E.0136
G1 X123.134 Y134.86 E.0039
G1 X122.683 Y134.766 F21000
G1 F3000
G1 X122.701 Y134.527 E.00844
G1 X122.891 Y134.034 E.0186
G1 X123.203 Y133.609 E.01854
G1 X123.641 Y133.305 E.01877
G1 X124.142 Y133.128 E.01868
G1 X124.675 Y133.124 E.01877
G1 X125.188 Y133.259 E.01869
G1 X125.632 Y133.556 E.01877
G1 X125.979 Y133.957 E.01868
G1 X126.177 Y134.448 E.01863
G1 X126.232 Y134.818 E.01314
G1 X126.188 Y135.321 E.01778
G1 X126.019 Y135.754 E.01635
G1 X125.823 Y136.041 E.01223
G1 X125.416 Y136.388 E.01883
G1 X124.937 Y136.613 E.01863
G1 X124.407 Y136.67 E.01876
G1 X123.883 Y136.587 E.0187
G1 X123.412 Y136.335 E.01879
G1 X123.026 Y135.971 E.01867
G1 X122.774 Y135.486 E.01924
G1 X122.667 Y134.988 E.01791
G1 X122.679 Y134.826 E.00571
G1 X122.227 Y134.732 F21000
;TYPE:Outer wall
G1 F3000
G1 X122.249 Y134.442 E.01025
M73 P1 R3
G1 X122.38 Y134.017 E.01565
G1 X122.594 Y133.624 E.01576
G1 X122.882 Y133.28 E.01576
G1 X123.232 Y133.001 E.01576
G1 X123.631 Y132.797 E.01576
G1 X124.062 Y132.676 E.01576
G1 X124.511 Y132.642 E.01584
G1 X124.953 Y132.698 E.01568
G1 X125.377 Y132.841 E.01576
G1 X125.765 Y133.064 E.01576
G1 X126.101 Y133.361 E.01576
G1 X126.371 Y133.718 E.01576
G1 X126.566 Y134.121 E.01576
G1 X126.676 Y134.555 E.01576
G1 X126.699 Y135.003 E.01576
G1 X126.633 Y135.44 E.01557
G1 X126.426 Y135.968 E.01997
G1 X126.175 Y136.336 E.01566
G1 X125.855 Y136.649 E.01576
G1 X125.478 Y136.892 E.01576
G1 X125.062 Y137.055 E.01576
G1 X124.621 Y137.133 E.01576
G1 X124.173 Y137.122 E.01576
G1 X123.736 Y137.022 E.01576
G1 X123.328 Y136.838 E.01576
G1 X122.964 Y136.576 E.01576
G1 X122.66 Y136.248 E.01576
G1 X122.426 Y135.866 E.01576
G1 X122.273 Y135.445 E.01576
G1 X122.207 Y135.005 E.01566
G1 X122.223 Y134.792 E.00753
G1 X122.279 Y134.705
G1 E-.56 F1800
;WIPE_START
G1 F3000
G1 X122.249 Y134.442 E-.04004
G1 X122.38 Y134.017 E-.05069
G1 X122.594 Y133.624 E-.05105
G1 X122.882 Y133.28 E-.05105
G1 X123.123 Y133.088 E-.03516
;WIPE_END
G1 E-.012 F1800
G1 Z.6 F21000
G1 X125.626 Y134.689 Z.2
G1 E.8 F1800
;TYPE:Bottom surface
;WIDTH:0.528387
G1 F6300
G1 X125.024 Y134.088 E.03178
G1 X124.858 Y133.992 E.00719
G1 X124.672 Y133.929 E.00735
G1 X124.479 Y133.905 E.00726
G1 X124.281 Y133.92 E.00742
G1 X124.194 Y133.944 E.00337
G1 X125.397 Y135.148 E.06361
G1 X125.307 Y135.378 E.00923
G1 X125.208 Y135.524 E.00662
G1 X125.147 Y135.583 E.00319
G1 X123.757 Y134.194 E.07346
G1 X123.638 Y134.335 E.0069
G1 X123.544 Y134.508 E.00734
G1 X123.507 Y134.63 E.00479
G1 X124.716 Y135.84 E.06395
G1 X124.526 Y135.873 E.00722
G1 X124.33 Y135.868 E.00734
G1 X124.139 Y135.825 E.00734
G1 X123.96 Y135.744 E.00734
G1 X123.868 Y135.678 E.00422
G1 X123.283 Y135.093 E.03091
; stop printing object cylinder_2.stl id:3 copy 0
; printing object cube_1.stl id:2 copy 0
G1 E-.56 F1800
;WIPE_START
G1 F6300
G1 X123.868 Y135.678 E-.09427
G1 X123.96 Y135.744 E-.01287
G1 X124.139 Y135.825 E-.02237
G1 X124.33 Y135.868 E-.02238
G1 X124.526 Y135.873 E-.02237
G1 X124.716 Y135.84 E-.02201
G1 X124.519 Y135.643 E-.03173
;WIPE_END
G1 E-.012 F1800
G1 Z.6 F21000
G1 X118.117 Y123.775 Z.2
G1 E.8 F1800
;TYPE:Inner wall
;WIDTH:0.499999
G1 F3000
G1 X120.788 Y123.775 E.09403
G1 X120.788 Y126.446 E.09403
M73 P2 R3
G1 X118.117 Y126.446 E.09403
G1 X118.117 Y123.835 E.09192
G1 X117.66 Y123.318 F21000
G1 F3000
G1 X121.245 Y123.318 E.1262
G1 X121.245 Y126.903 E.1262
G1 X117.66 Y126.903 E.1262
G1 X117.66 Y123.378 E.12409
G1 X117.202 Y122.86 F21000
;TYPE:Outer wall
G1 F3000
G1 X121.702 Y122.86 E.15837
G1 X121.702 Y127.36 E.15837
G1 X117.202 Y127.36 E.15837
G1 X117.202 Y122.92 E.15626
G1 X117.28 Y122.881
G1 E-.56 F1800
;WIPE_START
G1 F3000
G1 X119.202 Y122.894 E-.228
;WIPE_END
G1 E-.012 F1800
G1 Z.6 F21000
G1 X119.65 Y123.912 Z.2
G1 E.8 F1800
;TYPE:Bottom surface
;WIDTH:0.536514
G1 F6300
G1 X120.446 Y124.707 E.04277
G1 X120.446 Y125.405 E.02653
G1 X119.157 Y124.117 E.06923
G1 X118.459 Y124.117 E.02653
G1 X120.445 Y126.103 E.10674
M73 P3 R3
G1 X119.747 Y126.103 E.02653
G1 X118.459 Y124.816 E.06923
G1 X118.459 Y125.514 E.02653
G1 X119.255 Y126.309 E.04276
; stop printing object cube_1.stl id:2 copy 0
; printing object cube_1.stl id:1 copy 0
G1 E-.56 F1800
;WIPE_START
G1 F6300
G1 X118.459 Y125.514 E-.12827
G1 X118.459 Y124.816 E-.07958
G1 X118.584 Y124.941 E-.02015
;WIPE_END
G1 E-.012 F1800
G1 Z.6 F21000
G1 X128.117 Y123.775 Z.2
G1 E.8 F1800
;TYPE:Inner wall
;WIDTH:0.499999
G1 F3000
G1 X130.788 Y123.775 E.09403
G1 X130.788 Y126.446 E.09403
G1 X128.117 Y126.446 E.09403
G1 X128.117 Y123.835 E.09192
G1 X127.66 Y123.318 F21000
G1 F3000
G1 X131.245 Y123.318 E.1262
G1 X131.245 Y126.903 E.1262
G1 X127.66 Y126.903 E.1262
G1 X127.66 Y123.378 E.12409
G1 X127.202 Y122.86 F21000
;TYPE:Outer wall
G1 F3000
G1 X131.702 Y122.86 E.15837
G1 X131.702 Y127.36 E.15837
M73 P4 R3
G1 X127.202 Y127.36 E.15837
G1 X127.202 Y122.92 E.15626
G1 X127.28 Y122.881
G1 E-.56 F1800
;WIPE_START
G1 F3000
G1 X129.202 Y122.894 E-.228
;WIPE_END
G1 E-.012 F1800
G1 Z.6 F21000
G1 X129.65 Y123.912 Z.2
G1 E.8 F1800
;TYPE:Bottom surface
;WIDTH:0.536514
G1 F6300
G1 X130.446 Y124.707 E.04277
G1 X130.446 Y125.405 E.02653
G1 X129.157 Y124.117 E.06923
G1 X128.459 Y124.117 E.02653
G1 X130.445 Y126.103 E.10674
G1 X129.747 Y126.103 E.02653
G1 X128.459 Y124.816 E.06923
G1 X128.459 Y125.514 E.02653
G1 X129.255 Y126.309 E.04276
; stop printing object cube_1.stl id:1 copy 0
; printing object union_3.stl id:0 copy 0
G1 E-.56 F1800
;WIPE_START
G1 F6300
G1 X128.459 Y125.514 E-.12827
G1 X128.459 Y124.816 E-.07958
G1 X128.584 Y124.941 E-.02015
;WIPE_END
G1 E-.012 F1800
G1 Z.6 F21000
G1 X129.212 Y116.446 Z.2
G1 E.8 F1800
;TYPE:Inner wall
;WIDTH:0.499999
G1 F3000
G1 X129.212 Y113.775 E.09403
G1 X131.883 Y113.775 E.09403
G1 X131.883 Y116.446 E.09403
M73 P5 R3
G1 X129.272 Y116.446 E.09192
G1 X128.755 Y116.903 F21000
G1 F3000
G1 X128.755 Y113.318 E.1262
G1 X132.34 Y113.318 E.1262
G1 X132.34 Y116.903 E.1262
G1 X128.815 Y116.903 E.12409
G1 X128.298 Y117.36 F21000
;TYPE:Outer wall
G1 F3000
G1 X128.298 Y112.86 E.15837
G1 X132.798 Y112.86 E.15837
G1 X132.798 Y117.36 E.15837
G1 X128.358 Y117.36 E.15626
G1 X128.318 Y117.283
G1 E-.56 F1800
;WIPE_START
G1 F3000
G1 X128.331 Y115.361 E-.228
;WIPE_END
G1 E-.012 F1800
G1 Z.6 F21000
G1 X131.746 Y114.913 Z.2
G1 E.8 F1800
;TYPE:Bottom surface
;WIDTH:0.536517
G1 F6300
G1 X130.951 Y114.117 E.04277
G1 X130.252 Y114.117 E.02653
G1 X131.541 Y115.405 E.06923
G1 X131.541 Y116.103 E.02653
G1 X129.554 Y114.117 E.10675
M73 P6 R3
G1 X129.554 Y114.815 E.02653
G1 X130.842 Y116.103 E.06923
G1 X130.144 Y116.103 E.02653
G1 X129.349 Y115.308 E.04276
G1 E-.56 F1800
;WIPE_START
G1 F6300
G1 X130.144 Y116.103 E-.12827
G1 X130.842 Y116.103 E-.07958
G1 X130.717 Y115.978 E-.02015
;WIPE_END
G1 E-.012 F1800
G1 Z.6 F21000
G1 X121.883 Y116.446 Z.2
G1 E.8 F1800
;TYPE:Inner wall
;WIDTH:0.499999
G1 F3000
G1 X119.212 Y116.446 E.09403
G1 X119.212 Y113.775 E.09403
G1 X121.883 Y113.775 E.09403
G1 X121.883 Y116.386 E.09192
G1 X122.34 Y116.903 F21000
G1 F3000
G1 X118.755 Y116.903 E.1262
G1 X118.755 Y113.318 E.1262
G1 X122.34 Y113.318 E.1262
G1 X122.34 Y116.843 E.12409
G1 X122.798 Y117.36 F21000
;TYPE:Outer wall
G1 F3000
G1 X118.298 Y117.36 E.15837
G1 X118.298 Y112.86 E.15837
M73 P7 R3
G1 X122.798 Y112.86 E.15837
G1 X122.798 Y117.3 E.15626
G1 X122.72 Y117.34
G1 E-.56 F1800
;WIPE_START
G1 F3000
G1 X120.798 Y117.327 E-.228
;WIPE_END
G1 E-.012 F1800
G1 Z.6 F21000
G1 X120.745 Y113.912 Z.2
G1 E.8 F1800
;TYPE:Bottom surface
;WIDTH:0.536518
G1 F6300
G1 X121.541 Y114.707 E.04277
G1 X121.541 Y115.405 E.02653
G1 X120.252 Y114.117 E.06923
G1 X119.554 Y114.117 E.02653
G1 X121.541 Y116.103 E.10675
G1 X120.842 Y116.103 E.02653
G1 X119.554 Y114.816 E.06923
G1 X119.554 Y115.514 E.02653
G1 X120.35 Y116.309 E.04276
; stop printing object union_3.stl id:0 copy 0
;LAYER_CHANGE
;Z:0.4
;HEIGHT:0.2
;BEFORE_LAYER_CHANGE
;0.4
G92 E0

G1 E-.56 F1800
;WIPE_START
G1 F6300
G1 X119.554 Y115.514 E-.12827
G1 X119.554 Y114.816 E-.07958
G1 X119.679 Y114.941 E-.02015
;WIPE_END
G1 E-.012 F1800
G1 Z.6 F21000
;AFTER_LAYER_CHANGE
;0.4
M204 S5000
; printing object cylinder_2.stl id:3 copy 0
G1 X122.958 Y134.763
G1 Z.4
G1 E.8 F1800
;TYPE:Inner wall
;WIDTH:0.449999
G1 F8843.492
G1 X122.963 Y134.666 E.00304
G1 X123.102 Y134.241 E.01402
G1 X123.349 Y133.866 E.01407
G1 X123.698 Y133.595 E.01385
G1 X124.105 Y133.426 E.01381
G1 X124.656 Y133.405 E.01728
G1 X125.072 Y133.518 E.01351
G1 X125.442 Y133.765 E.01394
G1 X125.738 Y134.105 E.01413
G1 X125.904 Y134.519 E.01398
G1 X125.957 Y134.965 E.01408
G1 X125.862 Y135.398 E.01389
G1 X125.659 Y135.789 E.01381
G1 X125.253 Y136.157 E.01718
G1 X124.86 Y136.34 E.01359
G1 X124.418 Y136.388 E.01394
G1 X123.973 Y136.318 E.01412
G1 X123.578 Y136.108 E.01402
G1 X123.252 Y135.8 E.01406
G1 X123.045 Y135.403 E.01403
G1 X122.948 Y134.965 E.01406
G1 X122.956 Y134.823 E.00446
G1 X122.552 Y134.742 F21000
G1 F8843.492
G1 X122.559 Y134.605 E.0043
G1 X122.653 Y134.235 E.01197
G1 X122.818 Y133.892 E.01193
G1 X123.049 Y133.588 E.01197
G1 X123.335 Y133.335 E.01197
G1 X123.831 Y133.089 E.01735
G1 X124.252 Y133.003 E.01347
G1 X124.707 Y133.002 E.01426
G1 X125.065 Y133.086 E.01153
G1 X125.57 Y133.335 E.01765
G1 X125.856 Y133.588 E.01197
G1 X126.087 Y133.892 E.01197
G1 X126.252 Y134.235 E.01193
G1 X126.346 Y134.605 E.01197
G1 X126.365 Y134.986 E.01196
G1 X126.308 Y135.363 E.01195
G1 X126.086 Y135.871 E.01738
G1 X125.808 Y136.22 E.01399
M73 P8 R3
G1 X125.474 Y136.499 E.01364
G1 X125.144 Y136.666 E.01159
G1 X124.596 Y136.8 E.01768
G1 X124.214 Y136.791 E.01198
G1 X123.843 Y136.706 E.01193
G1 X123.495 Y136.549 E.01197
G1 X123.185 Y136.326 E.01197
G1 X122.926 Y136.047 E.01193
G1 X122.727 Y135.721 E.01197
G1 X122.597 Y135.363 E.01194
G1 X122.54 Y134.986 E.01195
G1 X122.549 Y134.802 E.00577
G1 X122.17 Y134.723 F21000
M204 S3000
;TYPE:Outer wall
;WIDTH:0.399999
G1 F7200
G1 X122.179 Y134.548 E.00483
G1 X122.292 Y134.104 E.01259
G1 X122.491 Y133.692 E.01259
G1 X122.767 Y133.327 E.01259
G1 X123.11 Y133.024 E.01259
G1 X123.507 Y132.795 E.01259
G1 X123.939 Y132.65 E.01252
G1 X124.519 Y132.593 E.01605
G1 X124.964 Y132.649 E.01232
G1 X125.398 Y132.795 E.01259
G1 X125.795 Y133.024 E.01259
G1 X126.138 Y133.327 E.01259
G1 X126.414 Y133.692 E.01259
G1 X126.613 Y134.104 E.01259
G1 X126.726 Y134.548 E.01259
G1 X126.749 Y135.005 E.01259
G1 X126.68 Y135.458 E.01259
G1 X126.524 Y135.888 E.01259
G1 X126.286 Y136.276 E.01252
G1 X125.884 Y136.689 E.01585
G1 X125.501 Y136.936 E.01253
G1 X125.075 Y137.103 E.01259
G1 X124.624 Y137.183 E.01259
G1 X124.167 Y137.172 E.01259
G1 X123.72 Y137.07 E.01259
G1 X123.303 Y136.881 E.01259
G1 X122.931 Y136.614 E.01259
G1 X122.62 Y136.279 E.01259
G1 X122.381 Y135.888 E.01259
G1 X122.225 Y135.458 E.01259
G1 X122.156 Y135.005 E.01259
G1 X122.167 Y134.783 E.0061
G1 X122.201 Y134.706
M204 S5000
G1 E-.56 F1800
;WIPE_START
G1 F7200
G1 X122.179 Y134.548 E-.02688
G1 X122.292 Y134.104 E-.05219
G1 X122.491 Y133.692 E-.0522
G1 X122.767 Y133.327 E-.05219
G1 X123.06 Y133.068 E-.04454
;WIPE_END
G1 E-.012 F1800
G1 Z.8 F21000
G1 X125.28 Y135.631
G1 Z.4
G1 E.8 F1800
;TYPE:Internal solid infill
G1 F10081.802
G1 X125.463 Y135.377 E.00862
G1 X125.573 Y134.946 E.01223
G1 X125.507 Y134.507 E.01222
G1 X125.275 Y134.127 E.01223
G1 X124.921 Y133.872 E.01199
G1 X124.494 Y133.772 E.01208
G1 X124.195 Y133.801 E.00826
G1 X123.791 Y133.985 E.0122
G1 X123.495 Y134.305 E.01198
G1 X123.343 Y134.723 E.01223
G1 X123.332 Y134.946 E.00614
G1 X123.442 Y135.377 E.01223
G1 X123.71 Y135.732 E.01223
G1 X124.095 Y135.954 E.01222
G1 X124.536 Y136.009 E.01222
G1 X124.964 Y135.889 E.01223
G1 X125.233 Y135.669 E.00954
G1 X124.475 Y134.854 F21000
;WIDTH:0.468318
G1 F8462.664
G1 X124.422 Y134.854 E.00174
G1 X124.395 Y134.901 E.00174
G1 X124.422 Y134.947 E.00174
G1 X124.468 Y134.947 E.00152
G1 X124.414 Y134.497 F21000
;WIDTH:0.399999
G1 F10081.802
G1 X124.147 Y134.627 E.00817
G1 X124.053 Y134.83 E.00616
G1 X124.049 Y134.91 E.00221
G1 X124.13 Y135.134 E.00655
G1 X124.324 Y135.274 E.00655
G1 X124.562 Y135.28 E.00655
G1 X124.754 Y135.147 E.00642
G1 X124.844 Y134.99 E.00497
G1 X124.832 Y134.752 E.00655
G1 X124.688 Y134.562 E.00655
G1 X124.473 Y134.511 E.00609
G1 X124.558 Y134.154 F21000
G1 F10081.802
G1 X124.289 Y134.151 E.00741
G1 X123.931 Y134.338 E.0111
G1 X123.766 Y134.567 E.00776
G1 X123.694 Y134.855 E.00818
G1 X123.69 Y134.928 E.00201
G1 X123.765 Y135.221 E.00832
G1 X123.948 Y135.463 E.00832
G1 X124.209 Y135.614 E.00831
G1 X124.509 Y135.651 E.00831
G1 X124.801 Y135.569 E.00832
G1 X125.072 Y135.333 E.00991
G1 X125.192 Y135.079 E.00772
G1 X125.207 Y134.777 E.00832
G1 X125.104 Y134.492 E.00831
G1 X124.898 Y134.271 E.00831
G1 X124.615 Y134.173 E.00823
; stop printing object cylinder_2.stl id:3 copy 0
; printing object cube_1.stl id:2 copy 0
G1 E-.56 F1800
;WIPE_START
G1 F10081.802
G1 X124.898 Y134.271 E-.03412
G1 X125.104 Y134.492 E-.03447
G1 X125.207 Y134.777 E-.03448
G1 X125.192 Y135.079 E-.03448
G1 X125.072 Y135.333 E-.03201
G1 X124.801 Y135.569 E-.04107
G1 X124.654 Y135.611 E-.01737
;WIPE_END
G1 E-.012 F1800
G1 Z.8 F21000
G1 X117.942 Y123.6
G1 Z.4
G1 E.8 F1800
;TYPE:Inner wall
;WIDTH:0.449999
G1 F8843.492
G1 X120.963 Y123.6 E.09469
G1 X120.963 Y126.621 E.09469
G1 X117.942 Y126.621 E.09469
G1 X117.942 Y123.66 E.09281
G1 X117.535 Y123.193 F21000
G1 F8843.492
G1 X121.37 Y123.193 E.1202
G1 X121.37 Y127.028 E.1202
G1 X117.535 Y127.028 E.1202
G1 X117.535 Y123.253 E.11832
G1 X117.152 Y122.81 F21000
M204 S3000
;TYPE:Outer wall
;WIDTH:0.399999
G1 F7200
G1 X121.752 Y122.81 E.12647
G1 X121.752 Y127.41 E.12647
G1 X117.152 Y127.41 E.12647
G1 X117.152 Y122.87 E.12482
M73 P9 R3
G1 X117.23 Y122.831
M204 S5000
G1 E-.56 F1800
;WIPE_START
G1 F7200
